icons/src/fork.knife.svg

<?xml version="1.0" encoding="UTF-8"?>
<!--Generator: Apple Native CoreSVG 341-->
<!DOCTYPE svg
PUBLIC "-//W3C//DTD SVG 1.1//EN"
       "http://www.w3.org/Graphics/SVG/1.1/DTD/svg11.dtd">
<svg version="1.1" xmlns="http://www.w3.org/2000/svg" xmlns:xlink="http://www.w3.org/1999/xlink" viewBox="0 0 13.7741 24.0918">
 <g>
  <rect height="24.0918" opacity="0" width="13.7741" x="0" y="0"/>
  <path d="M3.34703 22.6465C4.16735 22.6465 4.67516 22.1875 4.66539 21.3867L4.47008 10.4199C4.47008 10.0781 4.61656 9.82422 4.9193 9.6875C6.20836 9.12109 6.765 8.52539 6.69664 6.81641L6.4232 0.820312C6.40367 0.390625 6.14977 0.146484 5.74938 0.146484C5.36852 0.146484 5.13414 0.400391 5.13414 0.839844L5.2025 6.66992C5.2025 7.01172 4.98766 7.22656 4.66539 7.22656C4.33336 7.22656 4.09899 7.02148 4.09899 6.69922L4.00133 0.664062C3.99156 0.244141 3.74742 0 3.34703 0C2.94664 0 2.71227 0.244141 2.7025 0.664062L2.60485 6.69922C2.60485 7.02148 2.37047 7.22656 2.03844 7.22656C1.71617 7.22656 1.49156 7.01172 1.49156 6.66992L1.55992 0.839844C1.55992 0.400391 1.33531 0.146484 0.944689 0.146484C0.544298 0.146484 0.290392 0.390625 0.270861 0.820312L0.00718894 6.81641C-0.0709361 8.52539 0.485705 9.12109 1.77477 9.6875C2.0775 9.82422 2.22399 10.0781 2.22399 10.4199L2.03844 21.3867C2.02867 22.1875 2.52672 22.6465 3.34703 22.6465ZM10.9838 14.1309L10.7787 21.3379C10.7494 22.1875 11.267 22.6465 12.0775 22.6465C12.9076 22.6465 13.4154 22.2266 13.4154 21.4453L13.4154 0.732422C13.4154 0.234375 13.0736 0 12.722 0C12.3509 0 12.1068 0.195312 11.7943 0.654297C10.222 2.86133 9.18688 6.99219 9.18688 10.8984L9.18688 11.377C9.18688 12.0508 9.43102 12.5488 9.9193 12.8711L10.4955 13.2617C10.847 13.5059 11.0033 13.7793 10.9838 14.1309Z" fill="white"/>
 </g>
</svg>

<!--Generator: Apple Native CoreSVG 341-->
<!DOCTYPE svg  PUBLIC '-//W3C//DTD SVG 1.1//EN'  'http://www.w3.org/Graphics/SVG/1.1/DTD/svg11.dtd'>
<svg version="1.1" viewBox="0 0 13.774 24.092" xmlns="http://www.w3.org/2000/svg">
 <rect width="13.774" height="24.092" opacity="0"/>
 <path d="m3.347 22.646c0.82032 0 1.3281-0.459 1.3184-1.2598l-0.19531-10.967c0-0.3418 0.14648-0.59568 0.44922-0.7324 1.2891-0.56641 1.8457-1.1621 1.7773-2.8711l-0.27344-5.9961c-0.01953-0.42969-0.27343-0.67383-0.67382-0.67383-0.38086 0-0.61524 0.25391-0.61524 0.69336l0.06836 5.8301c0 0.3418-0.21484 0.55664-0.53711 0.55664-0.33203 0-0.5664-0.20508-0.5664-0.52734l-0.09766-6.0352c-0.00977-0.41992-0.25391-0.66406-0.6543-0.66406s-0.63476 0.24414-0.64453 0.66406l-0.09765 6.0352c0 0.32226-0.23438 0.52734-0.56641 0.52734-0.32227 0-0.54688-0.21484-0.54688-0.55664l0.06836-5.8301c0-0.43945-0.22461-0.69336-0.61523-0.69336-0.40039 0-0.6543 0.24414-0.67383 0.67383l-0.26367 5.9961c-0.078125 1.709 0.47852 2.3047 1.7676 2.8711 0.30273 0.13672 0.44922 0.3906 0.44922 0.7324l-0.18555 10.967c-0.00977 0.8008 0.48828 1.2598 1.3086 1.2598zm7.6368-8.5156-0.2051 7.207c-0.0293 0.8496 0.4883 1.3086 1.2988 1.3086 0.8301 0 1.3379-0.4199 1.3379-1.2012v-20.713c0-0.49805-0.3418-0.73242-0.6934-0.73242-0.3711 0-0.6152 0.19531-0.9277 0.6543-1.5723 2.207-2.6074 6.3379-2.6074 10.244v0.4786c0 0.6738 0.24414 1.1718 0.73242 1.4941l0.5762 0.3906c0.3515 0.2442 0.5078 0.5176 0.4883 0.8692z" fill="#fff"/>
</svg>
